X:1
T:Title
T:Mazurka in D♭ Major
T:F. Chopin
T:Four Mazurkas. Op. 30: No. 3
C:Composer
%%score { ( 1 3 ) | ( 2 4 ) }
L:1/8
Q:1/4=130
M:3/4
K:Db
V:1 treble nm="Piano" snm="Pno."
V:3 treble 
V:2 bass 
V:4 bass 
V:1
"^Allegro non troppo"!f! !>!A,6 | (!>!A,6 | .A,2) (!>!A,4 | .A,2) !>!A,4 | (A,2 F,G,A,B,) | %5
 (PA,2!>(! F,G,A,B,) | (3(A,B,!>)!!mf!A,!<(! F,G,A,B, | A,DEGFE)!<)! |: %8
!f!"^risoluto" .[DF]z/!<(!([EG]/ [=E=G]2 [FA]2 | [_GB])z/[FA]/!<)! ([df]4 | %10
 .[ce])z/([Bd]/ [GB]2 [B,G]2 | [A,F])z/!>(!([GB]/ !>![FA]4!>)! | %12
!pp! .[ce])z/([__Bd]/ [GB]2 [__B,G]2 | [A,F])z/!<(!([G__B]/ [FA]4!<)! | %14
!f! .[A,F])z/!>(!([G_B]/ [FA]4!>)! |!pp! .[A,F])z/!<(!([G__B]/ !>![FA]4!<)! | %16
!f!!<(! .[G_B])z/([Ac]/ [Bd]2 [ce]2 | [df])z/([eg]/ [=e=g]2 [fa]2!<)! | %18
 .[ac'])z/!>(!P[gb]/ [fa]2 [eg]2 | [df]!>)!z/!p!([Ae]/"_dim." [Fd]4 | %20
!pp! ([G__B])[Ac] [Bd]2 [ce]2 | [d_f][e=g] [fa]2 [_g__b]2 | .[ac'])z/(P[g__b]/ [_fa]2 [eg]2 | %23
 [d_f]>[Ae] !>![_Fd]4) :|"^con anima"!f! (!>!_f6- | _fPe=de_c'e | a3 _g_f_d | de _c4) | %28
!p!"_dolce" (e6- |!<(! eP=d ^cd b>d!<)! |!>(! =g3 fe=c!>)! |!p! c=d B4) | z2!<(! (!>!_f4- | %33
 _f!<)!Pe=de_c'e | a3 _g_f_d | dz/e/ _c4) |!p!"^dolce"!>(! (e6-!>)! |!<(! eP=d^cdb>d!<)! | %38
!>(! =g3 fe=c!>)! |[Q:1/4=120]"^poco rit.""_dim." (_c2[Q:1/4=80]!>(!{/c)} TB4{=AB=g=edB=G}!>)! | %40
"^a tempo""_sotto voce"[Q:1/4=130]!p! =E)z/(=G/ B2 A2 | =G2 F2) z2 | (=GB d2 c2 | B2 A2) z2 | %44
 (=B=d f2 =e2 | =d2 c2) z2 |!<(! (=e=g b3 a!<)! |!>(! =g4 f2)!>)! |!<(! (=E>=G!<)! !>![DB]3 [CA] | %49
!>(! [B,=G]2 [A,F]2)!>)!!mp! z2 |!<(!"_cresc." (=G>B!<)! !>![Fd]3 [Ec] |!>(! [DB]2 [CA]2)!>)! z2 | %52
 (=B>=d [Af]3 [=G=e] | [F=d]2 [=Ec]2) !>!=e2- | %54
!f! e=g"_rit. e dim."[Q:1/4=125] [db]3 [ca][Q:1/4=120] | %55
[Q:1/4=115]!>(! (!>![B=g]4[Q:1/4=105] ([Af]2-)!>)![Q:1/4=110] | %56
!p![Q:1/4=130] [Af]!<(!P[_G_e] [F=d][Ge] [Af][Bg] | .[Bg])!<)!z/([Bg]/ !>![Fd]3 [Af] | %58
 .[Af])z/([Af]/ !>!c7/2 e/ | .e)z/d/ !>!d3 (!>!d- | [Fd]!<(!P[Ec][=D=B][Ec][F_d][Ge] | %61
 .[Ge])!<)!z/([Ge]/ !>![_D_B]3"_cresc." [Fd] | .[Fd])z/([Fd]/ !>!=A7/2 c/ | %63
 .c)z/B/ B2 z"^stretto" (d |!f![Q:1/4=135] z Pe[Q:1/4=140][F=d][Ge][Q:1/4=145][Af][Bg] | %65
 (3.[Bg])[Bg][Bg] ([F_d]2 z [Af] | (3.[Af])[Af][Af][Q:1/4=140] (c2[Q:1/4=135] z3/2 e/ | %67
[Q:1/4=130] .e)z/d/ !>!d3 (!>!d- | [Fd]P[Ec][=D=B][Ec][F_d][Ge] | %69
 (3.[Ge])[Ge][Ge] ([_D_B]2 z [Fd] |"_dim." (3.[Fd])[Fd][Fd] ([C=A]2 z [Ec] | %71
 [Fd])([Fd] [C=A]2!p! [Ec]2) | z4 x2 | x2 z4 | %74
!pp!"^slentando"[Q:1/4=125] [Fd]([Fd] [C=A]2[Q:1/4=120] [Ec]2 | %75
 [Fd])([Fd][Q:1/4=115] [C=A]2 [Ec]2) |[Q:1/4=105]"_più rit. e dim." z6[Q:1/4=95] | z6[Q:1/4=85] | %78
!f!"^risoluto"[Q:1/4=130]"^a tempo" .[DF]z/!<(!([EG]/ [=E=G]2 [FA]2 | P[_GB])z/[FA]/!<)! ([df]4 | %80
 .[ce])z/([Bd]/ [GB]2 [B,G]2 | [A,F])z/!>(!([GB]/ !>![FA]4!>)! | %82
!pp! .[ce])z/([__Bd]/ [GB]2 [__B,G]2 | [A,F])z/!<(!([G__B]/ [FA]4!<)! | %84
!f! .[A,F])z/!>(!([G_B]/ [FA]4!>)! |!pp! .[A,F])z/!<(!([G__B]/ !>![FA]4!<)! | %86
!f!!<(! .[G_B])z/([Ac]/ [Bd]2 [ce]2 | [df])z/([eg]/ [=e=g]2 [fa]2!<)! | %88
 .[ac'])z/!>(!(P[gb]/ [fa]2 [eg]2 | [df])!>)!z/!p!([Ae]/"_dim." [Fd]4 | %90
!pp! ([G__B])[Ac] [Bd]2 [ce]2 | [d_f][e=g] [fa]2 [_g__b]2 | %92
[Q:1/4=125] .[ac'])z/(P[g__b]/[Q:1/4=120] [_fa]2[Q:1/4=115] [eg]2 | %93
[Q:1/4=110] [d_f][Ae][Q:1/4=105] [_Fd]4)[Q:1/4=100] |!f! !fermata!=F6 |] %95
V:2
 z6 | z6 | z6 | z6 | z6 | z6 | z6 | z6 |:!ped! .[D,,,D,,] z/ (D/ F,2!ped-up! A,,2) | %9
!ped! .D,, z/ (D/ F,2!ped-up! A,,2) |!ped! .G,,, z/ (B,/ D,2!ped-up! G,,2) | %11
!ped! .D,, z/ (D/ F,2!ped-up! A,,2) |!ped! .G,,, z/ (__B,/ D,2!ped-up! G,,2) | %13
!ped! .D,, z/ (D/ F,2!ped-up! A,,2) |!ped! .[D,,,D,,] z/ (D/ F,2!ped-up! A,,2) | %15
!ped! .D,, z/ (D/ F,2!ped-up! A,,2) |!ped! .A,,, z/ (C/ G,2!ped-up! A,,2) | %17
!ped! .D,, z/ (D/ F,2!ped-up! A,,2) |!ped! .A,,, z/ (C/ G,2!ped-up! A,,2) | %19
!ped! .D,, z/ (D/ F,2!ped-up! A,,2) |!ped! .A,,, (C G,2 A,,2)!ped-up! | %21
!ped! .D,, (D _F,2 A,,2)!ped-up! |!ped! .A,,, z/ (C/ G,2!ped-up! A,,2) | %23
!ped! .D,, z/ (D/ _F,2!ped-up! A,,2) :|!ped! !arpeggio!.[G,,,G,,]2 ([G,B,_F]2 [G,B,F]2!ped-up! | %25
 [G,_CE]2 [G,CE]2 [G,CE]2) | .G,,2 [G,B,_F]2 [G,B,F]2 | _C,2 [G,_CE]2 [G,CE]2 | %28
!ped! .F,,2 [F,=A,E]2 [F,A,E]2!ped-up! | [F,B,=D]2 [F,B,D]2 [F,B,D]2 | %30
!ped! .F,,2 [F,=A,E]2 [F,A,E]2!ped-up! |!ped! .B,,2 [F,B,=D]2 [F,B,D]2!ped-up! | %32
 [=G,B,_D_F]2 ([G,B,DF]2 [_G,B,DF]2 | [G,_CE]2 [G,CE]2 [G,CE]2) | %34
!ped! .G,,2 [G,B,_F]2 [G,B,F]2!ped-up! |!ped! _C,2 [G,_CE]2 [G,CE]2!ped-up! | %36
 [F,=A,E]2 [F,A,E]2 [F,A,E]2 | [F,B,=D]2 [F,B,D]2 [F,B,D]2 | %38
!ped! .F,,2 [F,=A,E]2 [F,A,E]2!ped-up! | ([F,_A,=D]2 [=E,=G,_D]4 | %40
"_tenuto" [D,=E,B,]2) [D,E,B,]2 [D,E,B,]2 | ([D,=E,B,]2 [D,F,B,]2) ([D,F,B,]2 | %42
 [D,=E,B,]2) [D,E,B,]2 [D,E,B,]2 | (B,2 =B,2 C2 | =D2 A,2 =G,2 | [C,=G,]2 [C,G,]2 [C,G,]2 | %46
!ped! !>!C,2) [=G,B,=E]2 [G,B,E]2!ped-up! |!ped! F,,2 [A,CF]2 [A,CF]2!ped-up! | %48
!ped! !>!C,,2 [C,=E,B,]2 [C,E,B,]2!ped-up! | F,,2 [C,F,]2 [C,F,]2 | %50
!ped! !>!._E,,2 [E,=G,D]2 [E,G,D]2!ped-up! | A,,2 [E,A,]2 [E,A,]2 | %52
!ped! !>!.=G,,2 [=G,=B,F]2 [G,B,F]2!ped-up! | C,2 [=G,C]2 z2 | %54
!ped! .C,,2 [=G,B,=E]2 [G,B,E]2!ped-up! |!ped! F,,2 (!>!!^![D=E]2 [CF]2)!ped-up! | %56
!ped! ._G,,2 [_G,B,E]2 [G,B,E]2!ped-up! |!ped! .A,,2 [F,A,D]2 [F,A,D]2!ped-up! | %58
!ped! .A,,2 [E,G,C]2 =A,,2!ped-up! |!ped! x2 [F,D]2 z2!ped-up! | %60
!ped! .E,,2 [E,G,C]2 [E,G,C]2!ped-up! |!ped! .F,,2 [D,B,]2 [D,B,]2!ped-up! | x2 [C,=A,]2 [C,A,]2 | %63
!ped! .B,,,2 [B,,F,B,]2 z2!ped-up! |!ped! .[A,,,A,,]2 [E,G,A,C]2 [E,G,A,C]2!ped-up! | %65
!ped! .[D,,D,]2 [F,A,D]2 [F,A,D]2!ped-up! |!ped! .A,,2 [E,G,C]2!ped-up! =A,,2 | x2 [F,D]2 z2 | %68
!ped! .E,,2 [E,G,C]2 [E,G,C]2!ped-up! | x2 [D,B,]2 z2 | %70
!ped! (F,,,2 !arpeggio![F,,C,=A,]2) z2!ped-up! | z6 |!p! !>!F,6- | F,6- | F,6- | F,6- | F,6- | %77
 F,6 |!ped! .D,, z/ (D/ F,2!ped-up! A,,2) |!ped! .D,, z/ (D/ F,2!ped-up! A,,2) | %80
!ped! .G,,, z/ (B,/ D,2!ped-up! G,,2) |!ped! .D,, z/ (D/ F,2!ped-up! A,,2) | %82
!ped! .G,,, z/ (__B,/ D,2!ped-up! G,,2) |!ped! .D,, z/ (D/ F,2!ped-up! A,,2) | %84
!ped! .[D,,,D,,] z/ (D/ F,2!ped-up! A,,2) |!ped! .D,, z/ (D/ F,2!ped-up! A,,2) | %86
!ped! .A,,, z/ (C/ G,2!ped-up! A,,2) |!ped! .D,, z/ (D/ F,2!ped-up! A,,2) | %88
!ped! .A,,, z/ (C/ G,2!ped-up! A,,2) |!ped! .D,, z/ (D/ F,2!ped-up! A,,2) | %90
!ped! .A,,, (C G,2 A,,2)!ped-up! |!ped! .D,, (D _F,2 A,,2)!ped-up! | %92
!ped! .A,,, z/ (C/ G,2!ped-up! A,,2) |!ped! .D,, (D _F,2 A,,2)!ped-up! | %94
!ped! !fermata!A,6!ped-up! |] %95
V:3
 x6 | x6 | x6 | x6 | x6 | x6 | x6 | x6 |: x6 | x6 | x6 | x6 | x6 | x6 | x6 | x6 | x6 | x6 | x6 | %19
 x6 | x6 | x6 | x/ x11/2 | x6 :| x6 | x6 | x6 | x6 | x6 | x6 | x6 | x6 | x6 | x6 | x6 | x6 | x6 | %37
 x6 | x6 | x6 | x6 | x6 | x6 | x6 | x6 | x6 | x6 | x6 | !>!=E6- | =E2 x4 | !>!=G6- | G2 x4 | %52
 !>!=B6- | =B2 x2 =e2 | e6- | =e4 x2 | x6 | x6 | x2 (E4 | .G2) F4- | x6 | x6 | x2 (C4 | %63
 .E2) D2 x (F | G2) x4 | x6 | x2 (E2 z2 | .G2) F4- | x6 | x6 | x6 | x6 | x6 | x6 | x6 | x6 | x6 | %77
 x6 | x6 | x6 | x6 | x6 | x6 | x6 | x6 | x6 | x6 | x6 | x6 | x6 | x6 | x6 | x/ x11/2 | x6 | x6 |] %95
V:4
 x6 | x6 | x6 | x6 | x6 | x6 | x6 | x6 |: x6 | x6 | x6 | x6 | x6 | x6 | x6 | x6 | x6 | x6 | x6 | %19
 x6 | x6 | x6 | x6 | x6 :| x6 | x6 | x6 | x6 | x6 | x6 | x6 | x6 | x6 | x6 | x6 | x6 | x6 | x6 | %38
 x6 | x6 | x6 | x6 | x6 | [D,F,]2 [D,F,]2 [D,F,]2 | [C,F,]2 [C,F,]2 [C,F,]2 | F,2 =E,2 =D,2 | x6 | %47
 x6 | x6 | x6 | x6 | x6 | x6 | x6 | x6 | x2 F,4 | x6 | x6 | x6 | B,,4 x2 | x6 | x6 | F,,6 | x6 | %64
 x6 | x6 | x6 | B,,4 x2 | x6 | F,,4 x2 | x6 | x6 | .F,,2!p! .F,,2 z2 | .=E,,2 .E,,2 z2 | x6 | x6 | %76
 ._E,,2 .E,,2 z2 | .__E,,2 .E,,2 z2 | x6 | x6 | x6 | x6 | x6 | x6 | x6 | x6 | x6 | x6 | x6 | x6 | %90
 x6 | x6 | x6 | x6 | D,6 |] %95

